symbols/web/wb_shade/materialsymbolsoutlined/wb_shade_wght600_20px.svg

<svg xmlns="http://www.w3.org/2000/svg" height="20" width="20"><path d="m16.667 17-4.25-4.229v-2.375L19.021 17Zm-4.25 0v-2.229L14.646 17Zm-9.542.042v-8.25H.958l5.813-5.834 5.833 5.834h-1.937v8.25Zm3.167-5.125h1.75V8.792h-1.75Z"/></svg>

<svg xmlns="http://www.w3.org/2000/svg" height="20" width="20"><path d="M16.667 17 12.417 12.771V10.396L19.021 17ZM12.417 17V14.771L14.646 17ZM2.875 17.042V8.792H0.958L6.771 2.958L12.604 8.792H10.667V17.042ZM6.042 11.917H7.792V8.792H6.042Z"/></svg>
